X: 10
T: Eavesdropper, The
Z: UPipes & harp
S: https://thesession.org/tunes/389#setting47282
R: jig
M: 6/8
L: 1/8
K: Gmaj
E|:DBB BAG|Bdd dBG|cde dBG|BAA AGE|
DBB BAG|Bdd dBG|cde dBA|1 BGF G2 {AG}F:|2 BGF G2d||
|:gfg afd|efg d2B|cde dBG|BAA A2d|
gab afd|efg d2B|cde dBG|1 AGF G2d:|2 AGF G3||

